dist/assets/images/sixthPart/Group 1369.svg

<svg width="67" height="76" viewBox="0 0 67 76" fill="none" xmlns="http://www.w3.org/2000/svg">
<g id="Group 1369">
<path id="Vector" d="M33.5961 64.0125L29.924 64.0125L24.1549 47.0328L40.1989 46.0599L33.5961 64.0125Z" fill="url(#paint0_linear_295_3917)"/>
<path id="Vector_2" d="M14.3929 15.4876C14.3743 16.9206 14.3707 44.9777 28.6131 49.5368C42.8556 54.0958 49.2931 30.3561 48.7842 13.4488L14.3929 15.4876Z" fill="url(#paint1_linear_295_3917)"/>
<path id="Vector_3" d="M43.1477 66.5862L20.377 66.5836L20.3767 69.3476L43.1473 69.3502L43.1477 66.5862Z" fill="url(#paint2_linear_295_3917)"/>
<path id="Vector_4" d="M43.1445 66.59L20.3737 66.5862L26.1371 63.4957L37.3822 63.4978L43.1445 66.59Z" fill="url(#paint3_linear_295_3917)"/>
<path id="Vector_5" d="M12.8917 10.3524C11.6388 10.3541 10.5637 11.2176 10.5002 12.2658L10.3721 14.4197C10.3095 15.4732 11.2837 16.3407 12.5353 16.3475L51.6275 16.5676C52.8791 16.5744 53.9553 15.7175 54.0182 14.6653L54.1646 12.2035C54.2274 11.1514 53.2543 10.2905 52.0014 10.2922L12.8917 10.3524Z" fill="url(#paint4_linear_295_3917)"/>
<path id="Vector_6" d="M38.6984 51.7678C37.7898 51.768 37.0046 51.1945 36.8985 50.4129C36.7851 49.5763 37.4953 48.8201 38.4947 48.7227C38.6839 48.7035 51.7836 47.323 53.0264 40.1537C53.2368 38.9442 53.2064 37.3663 51.9129 36.7066C50.8398 36.1615 49.0835 36.3344 47.8276 37.1058C47.1135 37.5489 46.3325 38.316 46.6638 39.4877C46.8967 40.3089 46.2948 41.1325 45.3185 41.3228C44.3421 41.5131 43.3663 41.0117 43.1336 40.1918C42.5317 38.0666 43.4842 35.9884 45.6845 34.6345C48.1275 33.13 51.4592 32.9037 53.7838 34.0823C55.1438 34.7722 57.3192 36.5333 56.6158 40.5879C55.921 44.5963 52.5728 47.807 46.9342 49.8726C44.3383 50.8024 41.6441 51.4305 38.9047 51.7446C38.8363 51.7558 38.7675 51.7635 38.6984 51.7678Z" fill="#91B3FA"/>
<path id="Vector_7" d="M25.1134 51.7663C26.0233 51.7658 26.8078 51.1915 26.9137 50.4116C27.027 49.5747 26.3137 48.8171 25.3178 48.7215C25.1292 48.7019 12.0294 47.3176 10.7893 40.1476C10.5792 38.938 10.6024 37.3586 11.9025 36.7C12.9763 36.1565 14.733 36.3292 15.9881 37.103C16.7019 37.5423 17.4832 38.3131 17.1506 39.4847C16.9186 40.305 17.52 41.1288 18.4938 41.325C19.4677 41.5212 20.4477 41.0147 20.681 40.1941C21.284 38.0702 20.3298 35.9884 18.1312 34.6379C15.6877 33.1329 12.3564 32.9041 10.0312 34.0838C8.67018 34.7718 6.49582 36.5332 7.19773 40.588C7.89156 44.5963 11.2322 47.8077 16.8772 49.8747C19.472 50.8077 22.1656 51.4388 24.9048 51.7555C24.9743 51.7628 25.0441 51.7659 25.1134 51.7663Z" fill="#91B3FA"/>
<path id="Vector_8" d="M44.6127 13.825C44.5954 13.83 44.5776 13.833 44.5596 13.8341L41.0687 13.815C40.9878 13.8145 40.9104 13.782 40.8535 13.7244C40.7966 13.6669 40.7649 13.5891 40.7653 13.5082C40.7658 13.4273 40.7983 13.3499 40.8558 13.293C40.9134 13.2361 40.9911 13.2044 41.072 13.2049L44.5632 13.2253C44.6399 13.2248 44.714 13.2532 44.7707 13.305C44.8273 13.3567 44.8623 13.428 44.8687 13.5044C44.8751 13.5809 44.8523 13.6569 44.805 13.7174C44.7578 13.7778 44.6894 13.8181 44.6136 13.8303L44.6127 13.825Z" fill="#91B3FA"/>
<path id="Vector_9" d="M35.2736 13.7783C35.2567 13.7832 35.2393 13.7862 35.2218 13.7871L14.3665 13.6733C14.3265 13.6732 14.2868 13.6652 14.2499 13.6497C14.2129 13.6343 14.1794 13.6117 14.1512 13.5833C14.1229 13.5549 14.1006 13.5212 14.0854 13.4842C14.0702 13.4471 14.0624 13.4074 14.0626 13.3674C14.0627 13.3273 14.0707 13.2877 14.0862 13.2508C14.1016 13.2138 14.1242 13.1803 14.1526 13.1521C14.181 13.1238 14.2147 13.1015 14.2517 13.0863C14.2888 13.0711 14.3285 13.0633 14.3685 13.0635L35.2251 13.177C35.302 13.1765 35.3762 13.205 35.4329 13.2569C35.4896 13.3088 35.5246 13.3802 35.5308 13.4568C35.537 13.5334 35.514 13.6096 35.4664 13.6699C35.4188 13.7303 35.3502 13.7704 35.2742 13.7822L35.2736 13.7783Z" fill="#91B3FA"/>
<path id="Vector_10" d="M30.5825 46.3556C30.5482 46.3637 30.5127 46.3659 30.4775 46.3621C26.7039 45.9266 23.6874 42.854 21.5115 37.2286C19.7163 32.5836 18.8697 27.149 18.4773 23.4134C18.4731 23.3736 18.4768 23.3334 18.4882 23.295C18.4996 23.2566 18.5184 23.2209 18.5435 23.1898C18.5687 23.1587 18.5998 23.1328 18.6349 23.1137C18.6701 23.0946 18.7087 23.0826 18.7485 23.0784C18.7883 23.0742 18.8285 23.0779 18.8669 23.0893C18.9053 23.1006 18.941 23.1194 18.9721 23.1446C19.0032 23.1698 19.0291 23.2008 19.0482 23.236C19.0673 23.2712 19.0793 23.3098 19.0835 23.3496C19.7598 29.7685 22.2305 44.8036 30.5492 45.7618C30.6206 45.7698 30.6868 45.8028 30.7362 45.8549C30.7856 45.9071 30.815 45.975 30.8191 46.0468C30.8233 46.1185 30.8019 46.1893 30.7588 46.2468C30.7158 46.3043 30.6537 46.3447 30.5838 46.3609L30.5825 46.3556Z" fill="#91B3FA"/>
<path id="Vector_11" d="M18.5964 20.7385L18.5479 20.7498C18.508 20.7524 18.468 20.7471 18.4301 20.7342C18.3923 20.7213 18.3573 20.7011 18.3273 20.6747C18.2972 20.6483 18.2727 20.6163 18.255 20.5804C18.2374 20.5445 18.227 20.5055 18.2244 20.4656C18.1632 19.6099 18.1534 19.117 18.1534 19.099C18.1494 19.0574 18.1541 19.0154 18.167 18.9756C18.18 18.9358 18.2009 18.8991 18.2286 18.8678C18.2563 18.8364 18.2902 18.8111 18.3281 18.7933C18.3659 18.7756 18.4071 18.7658 18.4489 18.7646C18.4907 18.7634 18.5323 18.7707 18.5712 18.7863C18.61 18.8018 18.6453 18.8251 18.6748 18.8548C18.7043 18.8845 18.7273 18.9199 18.7426 18.9589C18.7578 18.9978 18.7649 19.0395 18.7633 19.0813C18.7633 19.0813 18.7782 19.5841 18.8327 20.4289C18.836 20.5 18.8141 20.57 18.7709 20.6266C18.7277 20.6833 18.6659 20.7228 18.5964 20.7385Z" fill="white"/>
<path id="Vector_12" d="M26.7197 55.5783C26.7197 55.5783 29.7255 53.3132 29.8757 55.9033C30.0259 58.4934 31.35 60.1031 29.482 60.7405C27.6141 61.378 26.472 57.4465 26.7197 55.5783Z" fill="#91B3FA"/>
</g>
<defs>
<linearGradient id="paint0_linear_295_3917" x1="33831.6" y1="13077.5" x2="34850.3" y2="16140.7" gradientUnits="userSpaceOnUse">
<stop stop-color="#4042E2"/>
<stop offset="1" stop-color="#4F52FF"/>
</linearGradient>
<linearGradient id="paint1_linear_295_3917" x1="75420.5" y1="24956.4" x2="77435.8" y2="31208.7" gradientUnits="userSpaceOnUse">
<stop stop-color="#4042E2"/>
<stop offset="1" stop-color="#4F52FF"/>
</linearGradient>
<linearGradient id="paint2_linear_295_3917" x1="43081.5" y1="3085" x2="43086" y2="3564.64" gradientUnits="userSpaceOnUse">
<stop stop-color="#4042E2"/>
<stop offset="1" stop-color="#4F52FF"/>
</linearGradient>
<linearGradient id="paint3_linear_295_3917" x1="42562.2" y1="-2156.71" x2="42861.1" y2="-1002" gradientUnits="userSpaceOnUse">
<stop stop-color="#4042E2"/>
<stop offset="1" stop-color="#4F52FF"/>
</linearGradient>
<linearGradient id="paint4_linear_295_3917" x1="167936" y1="-40749.2" x2="168312" y2="-39371.2" gradientUnits="userSpaceOnUse">
<stop stop-color="#4042E2"/>
<stop offset="1" stop-color="#4F52FF"/>
</linearGradient>
</defs>
</svg>

<svg width="67" height="76" fill="none" xmlns="http://www.w3.org/2000/svg"><path d="M33.596 64.013h-3.672l-5.77-16.98L40.2 46.06l-6.603 17.953z" fill="url(#paint0_linear_295_3917)"/><path d="M14.393 15.488c-.019 1.433-.022 29.49 14.22 34.049 14.243 4.559 20.68-19.18 20.171-36.088l-34.391 2.039z" fill="url(#paint1_linear_295_3917)"/><path d="M43.148 66.586l-22.771-.002v2.764l22.77.002v-2.764z" fill="url(#paint2_linear_295_3917)"/><path d="M43.145 66.59l-22.771-.004 5.763-3.09 11.245.002 5.763 3.092z" fill="url(#paint3_linear_295_3917)"/><path d="M12.892 10.352c-1.253.002-2.328.866-2.392 1.914l-.128 2.154c-.063 1.053.912 1.92 2.163 1.928l39.093.22c1.251.006 2.327-.85 2.39-1.903l.147-2.461c.062-1.053-.91-1.914-2.164-1.912l-39.11.06z" fill="url(#paint4_linear_295_3917)"/><path d="M38.698 51.768c-.908 0-1.693-.574-1.8-1.355-.113-.837.597-1.593 1.597-1.69.189-.02 13.289-1.4 14.531-8.57.21-1.209.18-2.787-1.113-3.446-1.073-.546-2.83-.373-4.085.399-.715.443-1.495 1.21-1.164 2.382.233.82-.37 1.645-1.346 1.835-.976.19-1.952-.311-2.184-1.131-.602-2.125.35-4.204 2.55-5.557 2.444-1.505 5.775-1.731 8.1-.553 1.36.69 3.535 2.451 2.832 6.506-.695 4.008-4.043 7.219-9.682 9.285a35.96 35.96 0 01-8.03 1.872 2.073 2.073 0 01-.206.023zm-13.585-.002c.91 0 1.695-.575 1.8-1.354.114-.837-.6-1.595-1.595-1.69-.189-.02-13.289-1.404-14.529-8.574-.21-1.21-.187-2.79 1.114-3.448 1.073-.544 2.83-.37 4.085.403.714.44 1.495 1.21 1.163 2.382-.232.82.369 1.644 1.343 1.84.974.196 1.954-.31 2.187-1.13.603-2.125-.351-4.207-2.55-5.557-2.443-1.505-5.775-1.734-8.1-.554-1.36.688-3.535 2.45-2.833 6.504.694 4.008 4.034 7.22 9.68 9.287a35.917 35.917 0 008.027 1.88c.07.008.14.01.208.011zm19.5-37.941a.245.245 0 01-.053.01l-3.491-.02a.305.305 0 01.003-.61l3.491.02a.305.305 0 01.05.605v-.005zm-9.339-.047a.228.228 0 01-.052.01l-20.855-.115a.303.303 0 01-.304-.306.303.303 0 01.189-.28.304.304 0 01.116-.024l20.857.114a.305.305 0 01.05.605l-.001-.004zm-4.692 32.578a.311.311 0 01-.105.006c-3.773-.435-6.79-3.508-8.965-9.133-1.796-4.645-2.642-10.08-3.035-13.816a.304.304 0 01.39-.324.303.303 0 01.216.26c.677 6.42 3.148 21.455 11.466 22.413a.304.304 0 01.035.599l-.002-.005z" fill="#91B3FA"/><path d="M18.596 20.738l-.048.012a.304.304 0 01-.324-.284 27.873 27.873 0 01-.07-1.367.305.305 0 11.61-.018s.014.503.069 1.348a.303.303 0 01-.237.31z" fill="#fff"/><path d="M26.72 55.578s3.006-2.265 3.156.325c.15 2.59 1.474 4.2-.394 4.837-1.868.638-3.01-3.294-2.762-5.162z" fill="#91B3FA"/><defs><linearGradient id="paint0_linear_295_3917" x1="33831.6" y1="13077.5" x2="34850.3" y2="16140.7" gradientUnits="userSpaceOnUse"><stop stop-color="#4042E2"/><stop offset="1" stop-color="#4F52FF"/></linearGradient><linearGradient id="paint1_linear_295_3917" x1="75420.5" y1="24956.4" x2="77435.8" y2="31208.7" gradientUnits="userSpaceOnUse"><stop stop-color="#4042E2"/><stop offset="1" stop-color="#4F52FF"/></linearGradient><linearGradient id="paint2_linear_295_3917" x1="43081.5" y1="3085" x2="43086" y2="3564.64" gradientUnits="userSpaceOnUse"><stop stop-color="#4042E2"/><stop offset="1" stop-color="#4F52FF"/></linearGradient><linearGradient id="paint3_linear_295_3917" x1="42562.2" y1="-2156.71" x2="42861.1" y2="-1002" gradientUnits="userSpaceOnUse"><stop stop-color="#4042E2"/><stop offset="1" stop-color="#4F52FF"/></linearGradient><linearGradient id="paint4_linear_295_3917" x1="167936" y1="-40749.2" x2="168312" y2="-39371.2" gradientUnits="userSpaceOnUse"><stop stop-color="#4042E2"/><stop offset="1" stop-color="#4F52FF"/></linearGradient></defs></svg>
